X:69
T:Ashley. JBu.69
O:England,South Yorkshire
S:Joshua Burnett’s MS,c1835,S.Yorkshire
M:C
L:1/8
Q:1/2=80
R:.hornpipe
Z:vmp.R.Greig.2011
K:G
GABc dBAG|agfe e2d2|BdBG cecA|BdBG GFED|
GABc dcBA|agfee2d2|BdBG cecA|G2F2G4:|
|:defg fafd|gbge fafd|defg agfe|BdBG FAFD|
BdBG cecA|fafd gbge|dgfe dcBA|G2F2G4:|

